X:1
T:Kein Lieb ohn Leid sich findt
T:Johann Staden (1581-1634)
T:Kein Lieb ohn Leid sich findt
T:CPDL - Creative Commons Attribution Non Commercial 3.0
C:Johann Staden (1581-1634)
Z:CPDL - Creative Commons Attribution Non Commercial 3.0
%%score [ 1 2 3 4 ]
L:1/8
M:4/4
K:A
V:1 treble nm="Sopran"
V:2 treble nm="Alt"
V:3 treble-8 nm="Tenor"
V:4 bass nm="Bass"
V:1
 E2 | F2 A2 F2 G2 | A6 B2 | c2 e2 c2 ^d2 | e6 c2 | f4 e4 | d4 c4 | B2 A2 A2 G2 | A4 z2 G2 | %9
w: 1.~Kein|Lieb ohn Leid sich|findt, wie|sol- ches ich em-|pfind, jetz-|und der|Zeit, mit|gro- ßer Trau- rig-|keit die|
 A2 B2 c2 A2 | G3 A B2 c2 | d2 e2 f2 d2 | c3 d e2 c2 | G2 A2 A2 G2 | A6 |] %15
w: Ur- sach ist bei|mir, _ _ dass|ich mein höch- ste|Zier _ _ ver-|las- sen von mir|weit.|
V:2
 C2 | D2 E2 D2 B,2 | E6 G2 | A2 B2 A2 F2 | G6 A2 | A4 G2 A2- | AFAB A2 A2 | F2 E2 F2 E2 | %8
w: 2.~Wie|groß vor- hin die|Freud, al-|so ist jetzt das|Leid, wie|groß der Scherz,|_ _ _ _ _ al-|so ist jetzt der|
 E4 z2 E2 | C2 E2 E2 E2 | E3 F G2 A2 | F2 A2 A2 A2 | A6 E2 | E2 E2 F2 E2 | E6 |] %15
w: Schmerz. Wie|kurz die Zeit mir|war _ _ bei|dir jetz- und ein|Jahr! Ein|Tag be- dünks mein|Herz.|
V:3
 A2 | A2 c2 B3 B | c6 e2 | e2 e2 f3 f | e8 | z2 c2 e2 c2 | f4 e4 | d2 c2 B2 B2 | c4 z2 B2 | %9
w: 3.~Hab|al- so nun kein|Ruh, denn|ich denk im- mer-|zu|an dich all-|zeit, die|mir be- stimmt mein|Leid, wie|
 A2 G2 A2 c2 | B4 e4 | d2 c2 d2 f2 | e3 d c2 A2 | B2 c2 B2 B2 | c6 |] %15
w: ich denn bald mein|Reis an-|stel- len will mit|Fleiß, _ _ zu|dir mein Tau- send-|freud.|
V:4
 A,,2 | D,2 C,2 D,2 E,2 | A,,6 E,2 | A,2 G,2 A,2 B,2 | E,6 A,2 | F,G,A,B, C2 A,2 | %6
w: 1.~Kein|Lieb ohn Leid sich|findt, wie|sol- ches ich em-|pfind, jetz-|und _ _ _ _ der|
 DD,F,G, A,2 A,,2 | B,,2 C,2 D,2 E,2 | A,,4 z2 E,2 | F,2 E,2 A,,2 A,2 | E,6 A,2 | B,2 A,2 D,2 D2 | %12
w: Zeit, _ _ _ _ mit|gro- ßer Trau- rig-|keit die|Ur- sach ist bei|mir, dass|ich mein höch- ste|
 A,6 A,,2 | E,2 C,2 D,2 E,2 | A,,6 |] %15
w: Zier ver-|las- sen von mir|weit.|

